X:2787
T:Go tell Aunt Rhody
T:Hymn
C:Jean-Jacques Rousseau
O:France
R:Hymn
Z:Transcribed by Frank Nordberg - http://www.musicaviva.com
F:http://abc.musicaviva.com/tunes/rousseau-jean-jacques/aunt-rhody-g.abc
M:C
L:1/4
Q:1/4=108
K:G
B2BAG2G2|A2AcB2G2|d2dcB2BB|AG ABG2 z2:|
B2Bcd2d2|e2e2d2B2|B2Bcd2d2|e2e2d2 z2|
B2BAG2G2|A2AcB2G2|d2dcB2BB|AG ABG2 z2|]
W:
W:
W:  From Musica Viva - http://www.musicaviva.com
W:  the Internet center for free sheet music downloads.
